X:132
T:Look Down, O Lord, From Heaven Behold
%%stretchlast false
M:4/4
L:1/4
K:C clef=C1
"^I"[CEcg] "^I¹"[EGcg] "^V7¹"[B,Fdg] "^I"[CEcg] | "^v"[G,Dd^a]/ "^iiiø7¹"[G,Ed^a]/ "^IV¹"[A,Fca]/ "^IV"[^A,Fca]/ "^I"[CEcg]/ "^I7"[CE^Ag]/ "^ii"[DFAf] | "^V¹"[B,Ddg] "^I"[CGce] "^IV"[FAc] "^I"[CGce] | "^♭v°¹"[A,Ac^f] "^iii"[EGBg] "^II"[D^Fda]/ "^II7"[D^Fca]/ "^V"[G,GBg] | "^I"[CEcg] "^I¹"[EGcg] "^V7¹"[B,Fdg] "^I"[CEcg] | "^v"[G,Dd^a]/ "^iiiø7¹"[G,Ed^a]/ "^IV¹"[A,Fca]/ "^IV"[^A,Fca]/ "^I"[CEcg]/ "^I7"[CE^Ag]/ "^ii"[DFAf] | "^V¹"[B,Ddg] "^I"[CGce] "^IV"[FAc] "^I"[CGce] | "^♭v°¹"[A,Ac^f] "^iii"[EGBg] "^II"[D^Fda]/ "^II7"[D^Fca]/ "^V"[G,GBg] | "^I"[CGeg] "^I¹"[EGcc'] "^V"[Gdb] "^V/V"[D^Fda] | "^V¹"[B,Gdb] "^vi7"[A,Gec'] "^V/V"[D^Fda] "^V"[G,GBg] | [GBdg] "^I¹"[EGcc'] "^I"[CGeg] "^IV"[F,Fca] | "^vi"[A,Cce] "^V"[G,DBg]/ "^iii¹"[G,EBg]/ "^ii"[DFAf]/ "^V7²"[DGBf]/ "^vi"[A,Ace] | "^I"[CGce] "^V"[GBd] "^IV"[FAcf] "^I"[CGce] | "^V"[G,GBd]/ "^V7"[G,FBd]/ "^vi"[A,EAc] "^V7"[G,FBd] "^I"[CEGc] |]
